X:1
T:Title
%%score ( 1 2 ) { 3 | 4 }
L:1/8
Q:1/4=110
M:3/4
K:A
V:1 treble nm="Grand Piano, Soprano"
V:2 treble 
V:3 bass nm="Choir Pad, Bear Butte, 11.11.11.11 D"
V:4 bass 
V:1
 E2 [Ac]2 [Gc]2 | [Fc]2 [Ec]4 | [CE][EA] [Ac]2 [Gc]2 | [Fc]2 [Gd]4 | [GB][Ac] [Bd]2 [Ad]2 | %5
w: By~Ephraim~Timothy~Hildebrand,~1904 * *|||||
 [Gd]2 [Fd]2 [Fc]2 | cd [Ee]2 [Ee]2 | d-[Gd] [Ac]4 | E2 [Ac]2 [Gc]2 | [Fc]2 [Ec]4 | %10
w: |||||
 [CE][EA] [Ac]2 [Gc]2 | [Fc]2 [Gd]4 | [GB][Ac] [Bd]2 [Ad]2 | [Gd]2 [Ac]2 [Ee]2 | %14
w: ||||
 [Fd][FB] [EA]2 [EA]2 | [DG]2 [CA]4 | [Ee]2 [Ee]2 [EA]2 | [EB]2 [Ec]4 | [Ee][Ee] [Ee]2 [EA]2 | %19
w: |||||
 [EB]2 [Ec]4 | [Ec]2 [Dd]2 [Ec]2 | [EB]2 [Ee]2 [FA]2 | [Fd][FB] [EA]2 [CA]2 | [EB]2 [Ec]4 | %24
w: |||||
 [Ee]2 [Ee]2 [EA]2 | [EB]2 [Ec]4 | [Ee][Ee] [Ee]2 [EA]2 | [EB]2 [Ec]4 | [Ec]2 [Dd]2 [Ec]2 | %29
w: |||||
 B-[GB] e2 f2 | [Fd][FB] [EA]2 [EA]2 | [DG]2 [CA]4- | [CA]4 z2 |] %33
w: ||||
V:2
 x6 | x6 | x6 | x6 | x6 | x6 | E2 z2 z2 | .F2 z2 z2 | x6 | x6 | x6 | x6 | x6 | x6 | x6 | x6 | x6 | %17
 x6 | x6 | x6 | x6 | x6 | x6 | x6 | x6 | x6 | x6 | x6 | x6 | .F2 A4 | x6 | x6 | x6 |] %33
V:3
 E,2 E,2 E,2 | F,G, A,4 | A,[K:treble]C E2 E2 | A,2 B,4 | B,A, G,2 A,2 | B,2 A,2 A,2 | A,B, C2 C2 | %7
 B,2 A,4 | E,2 E,2 E,2 | F,G, A,4 | A,[K:treble]C E2 E2 | A,2 B,4 | B,A, G,2 A,2 | B,2 A,2 C,2 | %14
 A,[K:treble]D C2 C2 | B,2 A,4 | E2 E2 E2 | G,2 A,4 | EE E2 E2 | G,2 A,4 | A,2 A,2 A,2 | G,2 A,4 | %22
 A,D C2 A,2 | G,2 A,4 | E2 E2 E2 | G,2 A,4 | EE E2 E2 | G,2 A,4 | A,2 A,2 A,2 | %29
 DB, A,2[K:treble] D2 | A,D C2 C2 | B,2 A,4- | A,4 z2 |] %33
V:4
 z2 A,,2 A,,2 | A,,2 A,,4 | z A, A,2 A,2 | z2 E,4 | E,2 E,2 E,2 | E,2 z2 z2 | z2 E,2 E,2 | %7
 E,2 A,,4 | z2 A,,2 A,,2 | A,,2 A,,4 | z A, A,2 A,2 | z2 E,4 | E,2 E,2 E,2 | E,2 z2 z2 | %14
 D,D, E,2 E,2 | E,2 A,,4 | E,2 E,2 C,2 | E,2 z2 z2 | E,E, E,2 C,2 | E,2 z2 z2 | z2 F,2 E,2 | %21
 E,2 C,2 D,2 | D,D, E,2 E,2 | E,2 z2 z2 | E,2 E,2 C,2 | E,2 z2 z2 | E,E, E,2 C,2 | E,2 z2 z2 | %28
 z2 F,2 E,2 | D,2 C,2 D,2 | D,D, E,2 E,2 | E,2 A,,4- | A,,4 z2 |] %33

